Front/img/common-section_cover:sousmetier/illu-9.svg

<svg fill="none" xmlns="http://www.w3.org/2000/svg" viewBox="0 0 485 560"><path d="M170.979 254v286.5H63.999V192l106.98 62z" fill="#fff"/><path fill="#E1E1E1" d="M153.982 265h-14.997v23h14.997zM123.988 265h-14.997v23h14.997zM93.994 265H78.997v23h14.997zM153.982 305h-14.997v23h14.997zM123.988 305h-14.997v23h14.997zM93.994 305H78.997v23h14.997zM153.982 345h-14.997v23h14.997zM123.988 345h-14.997v23h14.997zM93.994 345H78.997v23h14.997zM153.982 385h-14.997v23h14.997zM123.988 385h-14.997v23h14.997zM93.994 385H78.997v23h14.997z"/><path d="M228.446 327.289l-86.303 44.58v161.103h86.303V327.289z" fill="#fff"/><path d="M154.273 401.624V397h63.696v4.624h-63.696z" fill="#FF8139"/><path fill-rule="evenodd" clip-rule="evenodd" d="M201.914 401.089h-47.442v-3.924l47.442 3.924z" fill="#D3662F"/><path d="M154.472 385.675v-4.624h63.695v4.624h-63.695z" fill="#FF8139"/><path fill-rule="evenodd" clip-rule="evenodd" d="M214.115 385.624h-59.842v-4.604l59.842 4.604z" fill="#D3662F"/><path d="M154.472 462.746v-4.624h63.695v4.624h-63.695z" fill="#FF8139"/><path fill-rule="evenodd" clip-rule="evenodd" d="M216.05 462.624h-61.777V458h1.253l60.524 4.624z" fill="#D3662F"/><path d="M154.472 447.331v-4.623h63.695v4.623h-63.695z" fill="#FF8139"/><path fill-rule="evenodd" clip-rule="evenodd" d="M207.232 447.624h-52.959V443h1.746l51.213 4.624z" fill="#D3662F"/><path d="M154.472 431.918v-4.625h63.695v4.625h-63.695z" fill="#FF8139"/><path fill-rule="evenodd" clip-rule="evenodd" d="M210.506 431.624h-56.233v-4.296l56.233 4.296z" fill="#D3662F"/><path d="M154.472 416.503v-4.624h63.695v4.624h-63.695z" fill="#FF8139"/><path fill-rule="evenodd" clip-rule="evenodd" d="M204.536 416.624h-50.263v-4.34l50.263 4.34z" fill="#D3662F"/><rect width="120.563" height="8.41" rx="4.205" transform="matrix(-.86598 .50007 .49993 .86607 235.76 315)" fill="#152D5D"/><rect width="142.863" height="8.41" rx="4.205" transform="rotate(30.005 -307.907 201.648) skewX(.01)" fill="#152D5D"/><path d="M227.854 464.867s-19.771 0-19.771-18.484c0-18.485 12.464-23.643 9.885-37.184-2.578-13.541 7.737-26.867 21.923-18.7 14.186 8.167 3.193 36.181 8.166 44.708 4.973 8.526 6.443 30.951-20.203 29.66z" fill="#24AD79"/><path fill-rule="evenodd" clip-rule="evenodd" d="M233.954 388.341c-4.117 3.07-8.597 8.645-6.047 15.659 4 11 4.5 22 0 31-4.128 8.26-6.994 23.257 1.835 29.92a44.176 44.176 0 01-2.436-.053s-19.771 0-19.771-18.484c0-9.25 3.121-15.163 5.916-20.459 2.791-5.287 5.257-9.96 3.969-16.725-2.239-11.755 5.241-23.349 16.534-20.858z" fill="#179364"/><path fill="#fff" d="M231.235 451.073h-2.817V483h2.817z"/><path d="M64.544 503.017s24.439 0 24.439-22.849-15.406-29.225-12.219-45.963c3.188-16.738-9.563-33.211-27.1-23.116-17.535 10.096-3.946 44.724-10.093 55.264-6.147 10.54-7.965 38.26 24.973 36.664z" fill="#24AD79"/><path fill-rule="evenodd" clip-rule="evenodd" d="M60.445 408.003c-4.438 3.815-7.876 10.557-5.39 21.497 4.999 22 1.5 31-3 39-4.472 7.953 2.418 36.657 33.928 23.735-6.56 10.782-21.373 10.782-21.373 10.782-32.939 1.596-31.12-26.124-24.974-36.664 2.339-4.01 1.821-11.506 1.247-19.812-.934-13.525-2.017-29.197 8.847-35.452 3.84-2.211 7.45-3.147 10.715-3.086z" fill="#179364"/><path fill="#fff" d="M60.364 485.966h3.481v39.465h-3.481z"/><path d="M190.617 480h188.31v61.032H0C.172 529.919 9.23 521 20.344 521H48.76c18.48 0 52.805-2.192 69.429-18.5 24.975-24.5 50.949-22.5 72.427-22.5z" fill="#152D5D"/><path d="M211.459 500c3.599-13.2 14.83-18.5 19.996-19.5h-8.498c-7.999 2.8-14.664 13.167-16.997 18-25.495-5-33.494 15-34.993 24-1.2 7.2-8.832 14.667-12.498 17.5h39.493c2.999-5.5 15.996-6.5 21.495-19 4.4-10-3.499-18.167-7.998-21zM312.44 540c8.398-28.8 32.494-51.667 43.492-59.5H261.45c-21.996 16-41.159 46.333-42.992 59.5h93.982zM130.061 541.012c8.158-29.2 30.708-53.345 40.906-61.012-31.172.996-43.487 12.052-56.959 24.664-9.105 8.524-28.467 12.795-34.05 13.766l-32.816 3.07c-8.255.5-23 1.871-28.65 3.5C6.352 528.5-.462 536.881.024 540.881l130.037.131z" fill="#0C2048"/><path d="M454.956 337.131c-7.852-10.524-28.083-9.852-41.058-17.271-4.828-2.76-8.452-17.39-8.379-27.009 10.687-6.278 20.12-31.708 20.232-53.935.137-27.432-13.362-49.461-33.833-49.563-20.471-.103-34.179 22.019-34.316 49.45-.11 21.821 4.624 43.97 17.094 51.913-.048 9.581-2.266 20.093-7.185 22.843-13.049 7.288-31.349 4.482-38.685 15.336-20.023 29.686-21.134 87.999-21.134 87.999l155.083 29.179s18.143-69.632-7.819-108.942z" fill="#F4C7C3"/><path d="M407.5 307c1.6 7.6 4.5 12.5 9.5 13.5L402.5 331l-26 1-15.5-16.5c8-1.2 11.333-7.5 12-10.5 11.6 7.6 28 4.5 34.5 2z" fill="#000"/><path d="M389.239 221.349c-23.834-3.349-31.746 24.45-30.945 34.65-8.538-32.242 16.229-42.704 29.68-43.904l37.745 8.155-1.041 33.666-3.571-25.715c-17.582 1.649-23.702-6.852-31.868-6.852z" fill="#DCB3AF"/><path d="M329.212 322.671c13.321-5.386 23.508-5.522 37.772-9.181.824 3.292 5.422 13.01 22.422 14.51 3.5 0 16.748.729 24.697-8.109 21.989 2.987 33.526 6.317 41.377 16.841 25.696 34.442 8.192 109.467 8.192 109.467l-202.855-37.501s33.63-71.967 68.395-86.027z" fill="#000"/><path d="M439.406 541l6.357-100.548-132.674-35.179L300.906 541h138.5z" fill="#000"/><path d="M347.537 470.244L358 491.366c-13.021 9.857-23.251 6.454-26.739 4.107-1.744-3.52-5.813-11.148-6.975-14.081-1.163-2.934 1.55-3.818 2.325-4.209 4.069-2.347 13.02-7.291 16.276-8.699 3.255-1.408 4.069.587 4.65 1.76z" fill="#E1E1E1"/><path d="M342.948 470.273c2.342-.944 3.708.786 4.098 1.769L357 492.09c-11.242 7.547-20.298 6.29-23.421 4.717-1.756-3.341-5.621-10.731-7.026-13.562-1.405-2.83.195-4.324 1.171-4.717 4.099-2.359 12.882-7.312 15.224-8.255z" fill="#4284B5"/><path d="M470.126 445.493c.986-18.418.23-63.719-1.721-71.993l-55.749 15.471c5.001 11.194 13.613 40.186 10.583 42.533-6.927 5.365-36.445 26.5-57.96 38.954l8.844 25.322c69.85-20.324 88.025-40.288 96.003-50.287z" fill="#000"/><path d="M383.501 499c17.6-8.4 47.667-24.5 60.5-31.5l-.5 7.5-62.5 32v-12l2.5 4z" fill="#00181B"/><path d="M354 483c2.901 0 9.279-1.191 13.308-3 8.703 3.859 12.088 13.266 12.692 17.487-.604.603-2.297 2.533-4.231 5.428-2.417 3.618-9.603 13.319-14.269 14.585-6.648 1.804-17.762 3.505-22.597 1.696-3.868-1.447-3.627-3.819-3.022-4.824-2.901-2.412-2.418-5.427-1.813-6.633-2.901-2.895-2.418-5.628-1.813-6.633-1.934-2.895-1.209-5.227-.605-6.031 7.253 4.824 20.738-2.829 25.372-6.045L354 483z" fill="#E2BBA6"/><path opacity=".1" d="M384.968 295.764a25.15 25.15 0 0010.813.054s-5.21 5.229-10.813-.054z" fill="#000"/><path d="M389.424 215.91c-23.019-4.41-32.105 15.511-31.063 39.594-4.756-12.616-20.956-45.004-4.956-53.004 5.384-2.692 11.296-1.705 19.718-6.3 6.782-3.7 10.89-11.181 23.282-11.2 12.998-.019 24.704 16.335 29.5 19.5 18.085 7.392 3.585 40.342-1.639 50.222l-.627-8.011-3.004-22.417c-11.284 1.782-24.038-7.01-31.211-8.384z" fill="#2F2417"/><path d="M354.906 211.001c-6 4-5.167 18.666-4 25.499-13-37 4-34 16-37.5s8-6.5 21-12.499c10.4-4.8 21 1.999 25 5.999-4.834-3-17.1-6.3-27.5 4.5-13 13.5-23 9.001-30.5 14.001z" fill="#6B4F2D"/><path d="M265.906 295l1.5 6.5h-29.5V300l28-5z" fill="#142B5A"/><path fill="#C4C4C4" d="M211.906 139.913l5.93-.915 26.247 170.14-5.93.915z"/><path d="M233.905 293.5c-3.6-1.2-6.166-4.166-7-5.5l9.5-1 3 13-4.5 1-1-7.5z" fill="#E2BBA6"/><path d="M231.427 248.729c2.115.869 10.598 9.107 14.575 13.117l-1.75 23.642c-3.836 2.107-12.017 5.995-14.046 4.687-2.536-1.637-8.588-2.815-8.388-6.773.2-3.959-2.55-4.494-3.451-8.667-.9-4.172.965-4.951 1.393-7.152.429-2.2-1.45-4.279 1.394-7.151 2.843-2.872 2.614-4.63 2.936-6.281.321-1.65 4.694-6.508 7.337-5.422z" fill="#CBA895"/><path d="M254.429 285.621c-.081 1.343 1.711 8.9 2.618 12.51l-18.732 3.367-1.857-15.833c-.678-1.163-1.969-4.61-1.7-9.085.336-5.595 7.654-15.263 4.398-17.142-3.256-1.88-14.782 3.043-15.106-.907-.324-3.95 3.032-3.749 4.744-4.207 1.712-.459 16.628-5.74 18.765-3.927 2.137 1.813 8.347 10.608 8.146 13.964-.202 3.357-2.317 10.53-.806 13.428 1.51 2.898-.37 6.154-.47 7.832z" fill="#E2BBA6"/><path d="M312 416.5L265 293l-33.5 5.5c6.5 43.667 24.4 132.4 44 138 19.6 5.6 32.5-11 36.5-20z" fill="#000"/><path d="M130.776 175.507C93.769 155.962 47.758 177.715 37.02 190 29.09 110.496 69.236 58.873 94.017 43h215.185c64.019 6.211 86.735 62.113 84.67 98.138-40.311-29.152-68.837-4.417-78.061 11.594-39.981-38.427-81.366-8.971-93.757 7.04-45.928-23.851-81.228-2.485-91.278 15.735z" fill="#081B42"/><path d="M321.5 24C384 58.46 395 117.5 393 141l-83.5-61L82 52.5C117.5 14 229-27 321.5 24z" fill="#081B42"/></svg>

<svg width="485" height="560" viewBox="0 0 485 560" fill="none" xmlns="http://www.w3.org/2000/svg">
<path d="M170.979 254V540.5H63.9991V192L170.979 254Z" fill="white"/>
<rect width="14.9972" height="23" transform="matrix(-1 0 0 1 153.982 265)" fill="#E1E1E1"/>
<rect width="14.9971" height="23" transform="matrix(-1 0 0 1 123.988 265)" fill="#E1E1E1"/>
<rect width="14.9971" height="23" transform="matrix(-1 0 0 1 93.9941 265)" fill="#E1E1E1"/>
<rect width="14.9972" height="23" transform="matrix(-1 0 0 1 153.982 305)" fill="#E1E1E1"/>
<rect width="14.9971" height="23" transform="matrix(-1 0 0 1 123.988 305)" fill="#E1E1E1"/>
<rect width="14.9971" height="23" transform="matrix(-1 0 0 1 93.9941 305)" fill="#E1E1E1"/>
<rect width="14.9972" height="23" transform="matrix(-1 0 0 1 153.982 345)" fill="#E1E1E1"/>
<rect width="14.9971" height="23" transform="matrix(-1 0 0 1 123.988 345)" fill="#E1E1E1"/>
<rect width="14.9971" height="23" transform="matrix(-1 0 0 1 93.9941 345)" fill="#E1E1E1"/>
<rect width="14.9972" height="23" transform="matrix(-1 0 0 1 153.982 385)" fill="#E1E1E1"/>
<rect width="14.9971" height="23" transform="matrix(-1 0 0 1 123.988 385)" fill="#E1E1E1"/>
<rect width="14.9971" height="23" transform="matrix(-1 0 0 1 93.9941 385)" fill="#E1E1E1"/>
<path d="M228.446 327.289L142.143 371.869V532.972H228.446V327.289Z" fill="white"/>
<path d="M154.273 401.624L154.273 397L217.969 397L217.969 401.624L154.273 401.624Z" fill="#FF8139"/>
<path fill-rule="evenodd" clip-rule="evenodd" d="M201.914 401.089L154.472 401.089L154.472 397.165L201.914 401.089Z" fill="#D3662F"/>
<path d="M154.472 385.675L154.472 381.051L218.167 381.051L218.167 385.675L154.472 385.675Z" fill="#FF8139"/>
<path fill-rule="evenodd" clip-rule="evenodd" d="M214.115 385.624L154.273 385.624L154.273 381.02L214.115 385.624Z" fill="#D3662F"/>
<path d="M154.472 462.746L154.472 458.122L218.167 458.122L218.167 462.746L154.472 462.746Z" fill="#FF8139"/>
<path fill-rule="evenodd" clip-rule="evenodd" d="M216.05 462.624L154.273 462.624L154.273 458L155.526 458L216.05 462.624Z" fill="#D3662F"/>
<path d="M154.472 447.331L154.472 442.708L218.167 442.708L218.167 447.331L154.472 447.331Z" fill="#FF8139"/>
<path fill-rule="evenodd" clip-rule="evenodd" d="M207.232 447.624L154.273 447.624L154.273 443L156.019 443L207.232 447.624Z" fill="#D3662F"/>
<path d="M154.472 431.918L154.472 427.293L218.167 427.293L218.167 431.918L154.472 431.918Z" fill="#FF8139"/>
<path fill-rule="evenodd" clip-rule="evenodd" d="M210.506 431.624L154.273 431.624L154.273 427.328L210.506 431.624Z" fill="#D3662F"/>
<path d="M154.472 416.503L154.472 411.879L218.167 411.879L218.167 416.503L154.472 416.503Z" fill="#FF8139"/>
<path fill-rule="evenodd" clip-rule="evenodd" d="M204.536 416.624L154.273 416.624L154.273 412.284L204.536 416.624Z" fill="#D3662F"/>
<rect width="120.563" height="8.41049" rx="4.20524" transform="matrix(-0.865984 0.500072 0.499928 0.866067 235.76 315)" fill="#152D5D"/>
<rect width="142.863" height="8.41049" rx="4.20524" transform="matrix(0.865984 0.500072 -0.499928 0.866067 59.5742 181)" fill="#152D5D"/>
<path d="M227.854 464.867C227.854 464.867 208.083 464.867 208.083 446.383C208.083 427.898 220.547 422.74 217.968 409.199C215.39 395.658 225.705 382.332 239.891 390.499C254.077 398.666 243.084 426.68 248.057 435.207C253.03 443.733 254.5 466.158 227.854 464.867Z" fill="#24AD79"/>
<path fill-rule="evenodd" clip-rule="evenodd" d="M233.954 388.341C229.837 391.411 225.357 396.986 227.907 404C231.907 415 232.407 426 227.907 435C223.779 443.26 220.913 458.257 229.742 464.92C228.957 464.925 228.146 464.908 227.306 464.867C227.306 464.867 207.535 464.867 207.535 446.383C207.535 437.133 210.656 431.22 213.451 425.924C216.242 420.637 218.708 415.964 217.42 409.199C215.181 397.444 222.661 385.85 233.954 388.341Z" fill="#179364"/>
<rect width="2.81657" height="31.9268" transform="matrix(-1 0 0 1 231.235 451.073)" fill="white"/>
<path d="M64.5444 503.017C64.5444 503.017 88.9829 503.017 88.9829 480.168C88.9829 457.319 73.5768 450.943 76.7643 434.205C79.9518 417.467 67.2006 400.994 49.6647 411.089C32.1287 421.185 45.7179 455.813 39.571 466.353C33.424 476.893 31.6058 504.613 64.5444 503.017Z" fill="#24AD79"/>
<path fill-rule="evenodd" clip-rule="evenodd" d="M60.4448 408.003C56.0066 411.818 52.569 418.56 55.055 429.5C60.054 451.5 56.5547 460.5 52.0555 468.5C47.583 476.453 54.4726 505.157 85.9834 492.235C79.4224 503.017 64.6098 503.017 64.6098 503.017C31.6713 504.613 33.4895 476.893 39.6364 466.353C41.975 462.343 41.457 454.847 40.8831 446.541C39.9485 433.016 38.8656 417.344 49.7301 411.089C53.5702 408.878 57.1808 407.942 60.4448 408.003Z" fill="#179364"/>
<rect x="60.3643" y="485.966" width="3.48148" height="39.4655" fill="white"/>
<path d="M190.617 480H378.927V541.032H-6.10352e-05C0.171692 529.919 9.22949 521 20.3439 521H48.7606C67.2419 521 101.566 518.808 118.19 502.5C143.165 478 169.139 480 190.617 480Z" fill="#152D5D"/>
<path d="M211.459 500C215.058 486.8 226.289 481.5 231.455 480.5H222.957C214.958 483.3 208.293 493.667 205.96 498.5C180.465 493.5 172.466 513.5 170.967 522.5C169.767 529.7 162.135 537.167 158.469 540H197.962C200.961 534.5 213.958 533.5 219.457 521C223.857 511 215.958 502.833 211.459 500Z" fill="#0C2048"/>
<path d="M312.44 540C320.838 511.2 344.934 488.333 355.932 480.5H261.45C239.454 496.5 220.291 526.833 218.458 540H312.44Z" fill="#0C2048"/>
<path d="M130.061 541.012C138.219 511.812 160.769 487.667 170.967 480C139.795 480.996 127.48 492.052 114.008 504.664C104.903 513.188 85.5413 517.459 79.9577 518.43L47.1418 521.5C38.8868 522 24.1422 523.371 18.4921 525C6.35242 528.5 -0.461533 536.881 0.0240479 540.881L130.061 541.012Z" fill="#0C2048"/>
<path d="M454.956 337.131C447.104 326.607 426.873 327.279 413.898 319.86C409.07 317.1 405.446 302.47 405.519 292.851C416.206 286.573 425.639 261.143 425.751 238.916C425.888 211.484 412.389 189.455 391.918 189.353C371.447 189.25 357.739 211.372 357.602 238.803C357.492 260.624 362.226 282.773 374.696 290.716C374.648 300.297 372.43 310.809 367.511 313.559C354.462 320.847 336.162 318.041 328.826 328.895C308.803 358.581 307.692 416.894 307.692 416.894L462.775 446.073C462.775 446.073 480.918 376.441 454.956 337.131Z" fill="#F4C7C3"/>
<path d="M407.5 307C409.1 314.6 412 319.5 417 320.5L402.5 331L376.5 332L361 315.5C369 314.3 372.333 308 373 305C384.6 312.6 401 309.5 407.5 307Z" fill="black"/>
<path d="M389.239 221.349C365.405 218 357.493 245.799 358.294 255.999C349.756 223.757 374.523 213.295 387.974 212.095L425.719 220.25L424.678 253.916L421.107 228.201C403.525 229.85 397.405 221.349 389.239 221.349Z" fill="#DCB3AF"/>
<path d="M329.212 322.671C342.533 317.285 352.72 317.149 366.984 313.49C367.808 316.782 372.406 326.5 389.406 328C392.906 328 406.154 328.729 414.103 319.891C436.092 322.878 447.629 326.208 455.48 336.732C481.176 371.174 463.672 446.199 463.672 446.199L260.817 408.698C260.817 408.698 294.447 336.731 329.212 322.671Z" fill="black"/>
<path d="M439.406 541L445.763 440.452L313.089 405.273L300.906 541L439.406 541Z" fill="black"/>
<path d="M347.537 470.244L358 491.366C344.979 501.223 334.749 497.82 331.261 495.473C329.517 491.953 325.448 484.325 324.286 481.392C323.123 478.458 325.836 477.574 326.611 477.183C330.68 474.836 339.631 469.892 342.887 468.484C346.142 467.076 346.956 469.071 347.537 470.244Z" fill="#E1E1E1"/>
<path d="M342.948 470.273C345.29 469.329 346.656 471.059 347.046 472.042L357 492.09C345.758 499.637 336.702 498.38 333.579 496.807C331.823 493.466 327.958 486.076 326.553 483.245C325.148 480.415 326.748 478.921 327.724 478.528C331.823 476.169 340.606 471.216 342.948 470.273Z" fill="#4284B5"/>
<path d="M470.126 445.493C471.112 427.075 470.356 381.774 468.405 373.5L412.656 388.971C417.657 400.165 426.269 429.157 423.239 431.504C416.312 436.869 386.794 458.004 365.279 470.458L374.123 495.78C443.973 475.456 462.148 455.492 470.126 445.493Z" fill="black"/>
<path d="M383.501 499C401.101 490.6 431.168 474.5 444.001 467.5L443.501 475L381.001 507L381.001 495L383.501 499Z" fill="#00181B"/>
<path d="M354 483C356.901 483 363.279 481.809 367.308 480C376.011 483.859 379.396 493.266 380 497.487C379.396 498.09 377.703 500.02 375.769 502.915C373.352 506.533 366.166 516.234 361.5 517.5C354.852 519.304 343.738 521.005 338.903 519.196C335.035 517.749 335.276 515.377 335.881 514.372C332.98 511.96 333.463 508.945 334.068 507.739C331.167 504.844 331.65 502.111 332.255 501.106C330.321 498.211 331.046 495.879 331.65 495.075C338.903 499.899 352.388 492.246 357.022 489.03L354 483Z" fill="#E2BBA6"/>
<path opacity="0.1" d="M384.968 295.764C388.526 296.566 392.216 296.584 395.781 295.818C395.781 295.818 390.571 301.047 384.968 295.764Z" fill="black"/>
<path d="M389.424 215.91C366.405 211.5 357.319 231.421 358.361 255.504C353.605 242.888 337.405 210.5 353.405 202.5C358.789 199.808 364.701 200.795 373.123 196.2C379.905 192.5 384.013 185.019 396.405 185C409.403 184.981 421.109 201.335 425.905 204.5C443.99 211.892 429.49 244.842 424.266 254.722L423.639 246.711L420.635 224.294C409.351 226.076 396.597 217.284 389.424 215.91Z" fill="#2F2417"/>
<path d="M354.906 211.001C348.906 215.001 349.739 229.667 350.906 236.5C337.906 199.5 354.906 202.5 366.906 199C378.906 195.5 374.906 192.5 387.906 186.501C398.306 181.701 408.906 188.5 412.906 192.5C408.072 189.5 395.806 186.2 385.406 197C372.406 210.5 362.406 206.001 354.906 211.001Z" fill="#6B4F2D"/>
<path d="M265.906 295L267.406 301.5L237.906 301.5L237.906 300L265.906 295Z" fill="#142B5A"/>
<rect x="211.906" y="139.913" width="6" height="172.153" transform="rotate(-8.76981 211.906 139.913)" fill="#C4C4C4"/>
<path d="M233.905 293.5C230.305 292.3 227.739 289.334 226.905 288L236.405 287L239.405 300L234.905 301L233.905 293.5Z" fill="#E2BBA6"/>
<path d="M231.427 248.729C233.542 249.598 242.025 257.836 246.002 261.846L244.252 285.488C240.416 287.595 232.235 291.483 230.206 290.175C227.67 288.538 221.618 287.36 221.818 283.402C222.018 279.443 219.268 278.908 218.367 274.735C217.467 270.563 219.332 269.784 219.76 267.583C220.189 265.383 218.31 263.304 221.154 260.432C223.997 257.56 223.768 255.802 224.09 254.151C224.411 252.501 228.784 247.643 231.427 248.729Z" fill="#CBA895"/>
<path d="M254.429 285.621C254.348 286.964 256.14 294.521 257.047 298.131L238.315 301.498L236.458 285.665C235.78 284.502 234.489 281.055 234.758 276.58C235.094 270.985 242.412 261.317 239.156 259.438C235.9 257.558 224.374 262.481 224.05 258.531C223.726 254.581 227.082 254.782 228.794 254.324C230.506 253.865 245.422 248.584 247.559 250.397C249.696 252.21 255.906 261.005 255.705 264.361C255.503 267.718 253.388 274.891 254.899 277.789C256.409 280.687 254.529 283.943 254.429 285.621Z" fill="#E2BBA6"/>
<path d="M312 416.5L265 293L231.5 298.5C238 342.167 255.9 430.9 275.5 436.5C295.1 442.1 308 425.5 312 416.5Z" fill="black"/>
<path d="M130.776 175.507C93.7693 155.962 47.7585 177.715 37.0199 190C29.0898 110.496 69.2357 58.8731 94.0171 43H298.051H309.202C373.221 49.2113 395.937 105.113 393.872 141.138C353.561 111.986 325.035 136.721 315.811 152.732C275.83 114.305 234.445 143.761 222.054 159.772C176.126 135.921 140.826 157.287 130.776 175.507Z" fill="#081B42"/>
<path d="M321.5 24.0001C384 58.46 395 117.5 393 141L309.5 79.9999L82.0001 52.4999C117.5 13.9998 229 -27.0005 321.5 24.0001Z" fill="#081B42"/>
</svg>
